;FLAVOR:Marlin
;TIME:2649
;Filament used: 3.43123m
;Layer height: 0.2
;MINX:-10.571
;MINY:-10.62
;MINZ:0.3
;MAXX:10.655
;MAXY:10.606
;MAXZ:99.9
;TARGET_MACHINE.NAME:Unknown
;Generated with Cura_SteamEngine 5.7.1
M140 S80
M105
M190 S80
M104 S220
M105
M109 S220
M82 ;absolute extrusion mode
G28 ;Home
G1 Z15.0 F6000 ;Move the platform down 15mm
;Prime the extruder
G92 E0
G1 F200 E10
G92 E0
G92 E0
G92 E0
G1 F1500 E-5
;LAYER_COUNT:499
;LAYER:0
M107
G0 F3600 X-10.169 Y-4.54 Z0.3
;TYPE:SKIRT
G1 F1500 E0
G1 F1800 X-10.096 Y-5.512 E0.04863
G1 X-9.841 Y-6.468 E0.09799
G1 X-9.419 Y-7.375 E0.1479
G1 X-8.857 Y-8.183 E0.197
G1 X-8.149 Y-8.893 E0.24703
G1 X-7.338 Y-9.462 E0.29645
G1 X-6.436 Y-9.886 E0.34618
G1 X-5.475 Y-10.142 E0.3958
G1 X-4.579 Y-10.22 E0.44067
G1 X4.669 Y-10.218 E0.90205
G1 X5.555 Y-10.143 E0.94641
G1 X6.505 Y-9.889 E0.99547
G1 X7.411 Y-9.468 E1.04531
G1 X8.223 Y-8.903 E1.09467
G1 X8.921 Y-8.205 E1.14391
G1 X9.499 Y-7.385 E1.19397
G1 X9.919 Y-6.485 E1.24352
G1 X10.177 Y-5.521 E1.2933
G1 X10.255 Y-4.631 E1.33788
G1 X10.253 Y4.526 E1.79472
G1 X10.18 Y5.498 E1.84335
G1 X9.926 Y6.45 E1.89251
G1 X9.504 Y7.361 E1.9426
G1 X8.938 Y8.171 E1.9919
G1 X8.235 Y8.877 E2.0416
G1 X7.428 Y9.445 E2.09084
G1 X6.515 Y9.873 E2.14114
G1 X5.559 Y10.128 E2.19051
G1 X4.665 Y10.206 E2.23528
G1 X-4.491 Y10.204 E2.69207
G1 X-5.461 Y10.131 E2.7406
G1 X-6.421 Y9.875 E2.79017
G1 X-7.327 Y9.453 E2.84003
G1 X-8.134 Y8.892 E2.88907
G1 X-8.842 Y8.186 E2.93895
G1 X-9.413 Y7.371 E2.9886
G1 X-9.835 Y6.47 E3.03823
G1 X-10.094 Y5.505 E3.08808
G1 X-10.171 Y4.617 E3.13255
G1 X-10.169 Y-4.54 E3.5894
G0 F3600 X-10.568 Y-4.57
G1 F1800 X-10.492 Y-5.577 E3.63978
G1 X-10.204 Y-6.637 E3.69458
G1 X-9.782 Y-7.544 E3.74449
G1 X-9.185 Y-8.411 E3.797
G1 X-8.379 Y-9.22 E3.85398
G1 X-7.508 Y-9.824 E3.90686
G1 X-6.539 Y-10.273 E3.96014
G1 X-5.578 Y-10.529 E4.00976
G1 X-4.579 Y-10.62 E4.0598
G1 X4.703 Y-10.617 E4.52288
G1 X5.589 Y-10.542 E4.56724
G1 X6.674 Y-10.252 E4.62328
G1 X7.58 Y-9.831 E4.67312
G1 X8.506 Y-9.186 E4.72942
G1 X9.248 Y-8.435 E4.78209
G1 X9.826 Y-7.615 E4.83214
G1 X10.281 Y-6.654 E4.88519
G1 X10.575 Y-5.556 E4.9419
G1 X10.655 Y-4.631 E4.98822
G1 X10.652 Y4.556 E5.44656
G1 X10.579 Y5.528 E5.49519
G1 X10.289 Y6.618 E5.55146
G1 X9.832 Y7.59 E5.60505
G1 X9.266 Y8.4 E5.65435
G1 X8.465 Y9.204 E5.71097
G1 X7.598 Y9.807 E5.76365
G1 X6.685 Y10.235 E5.81396
G1 X5.594 Y10.526 E5.87029
G1 X4.665 Y10.606 E5.91681
G1 X-4.521 Y10.603 E6.3751
G1 X-5.526 Y10.527 E6.42539
G1 X-6.59 Y10.238 E6.48039
G1 X-7.496 Y9.816 E6.53026
G1 X-8.391 Y9.2 E6.58446
G1 X-9.17 Y8.416 E6.6396
G1 X-9.741 Y7.601 E6.68925
G1 X-10.212 Y6.609 E6.74404
G1 X-10.493 Y5.54 E6.79918
G1 X-10.571 Y4.617 E6.84539
G1 X-10.568 Y-4.57 E7.30373
G1 F1500 E2.30373
;MESH:Body1
G0 F3600 X-8.635 Y-4.519
G0 X-7.55 Y-4.519
G0 X4.518 Y7.004
;TYPE:WALL-INNER
G1 F1500 E7.30373
G1 F1800 X5.006 Y6.962 E7.32817
G1 X5.41 Y6.853 E7.34905
G1 X5.808 Y6.667 E7.37096
G1 X6.166 Y6.415 E7.39281
G1 X6.47 Y6.111 E7.41426
G1 X6.721 Y5.752 E7.43611
G1 X6.903 Y5.355 E7.4579
G1 X7.01 Y4.954 E7.4786
G1 X7.052 Y4.477 E7.50249
G1 X7.052 Y-4.489 E7.94981
G1 X7.011 Y-4.969 E7.97384
G1 X6.901 Y-5.374 E7.99478
G1 X6.715 Y-5.772 E8.0167
G1 X6.463 Y-6.129 E8.0385
G1 X6.157 Y-6.435 E8.06009
G1 X5.804 Y-6.684 E8.08164
G1 X5.403 Y-6.867 E8.10363
G1 X5.005 Y-6.975 E8.12421
G1 X4.528 Y-7.016 E8.14809
G1 X-4.431 Y-7.019 E8.59506
G1 X-4.922 Y-6.975 E8.61965
G1 X-5.326 Y-6.868 E8.6405
G1 X-5.724 Y-6.68 E8.66246
G1 X-6.081 Y-6.431 E8.68418
G1 X-6.384 Y-6.125 E8.70566
G1 X-6.633 Y-5.768 E8.72738
G1 X-6.82 Y-5.364 E8.74959
G1 X-6.927 Y-4.969 E8.77
G1 X-6.968 Y-4.493 E8.79384
G1 X-6.968 Y4.477 E9.24136
G1 X-6.927 Y4.953 E9.26519
G1 X-6.817 Y5.36 E9.28623
G1 X-6.63 Y5.761 E9.3083
G1 X-6.379 Y6.117 E9.33003
G1 X-6.075 Y6.422 E9.35152
G1 X-5.718 Y6.67 E9.3732
G1 X-5.32 Y6.856 E9.39512
G1 X-4.922 Y6.963 E9.41568
G1 X-4.445 Y7.004 E9.43957
G1 X4.518 Y7.004 E9.88673
G0 F3600 X4.534 Y7.404
G1 F1800 X5.075 Y7.358 E9.91382
G1 X5.548 Y7.23 E9.93827
G1 X6.009 Y7.014 E9.96367
G1 X6.424 Y6.723 E9.98895
G1 X6.778 Y6.369 E10.01393
G1 X7.069 Y5.952 E10.0393
G1 X7.281 Y5.491 E10.06461
G1 X7.406 Y5.024 E10.08873
G1 X7.452 Y4.494 E10.11527
G1 X7.452 Y-4.506 E10.56429
G1 X7.406 Y-5.039 E10.59098
G1 X7.278 Y-5.512 E10.61542
G1 X7.062 Y-5.973 E10.64082
G1 X6.771 Y-6.388 E10.66611
G1 X6.416 Y-6.743 E10.69116
G1 X6.004 Y-7.033 E10.71629
G1 X5.539 Y-7.245 E10.74179
G1 X5.075 Y-7.37 E10.76576
G1 X4.545 Y-7.416 E10.7923
G1 X-4.449 Y-7.419 E11.24102
G1 X-4.991 Y-7.37 E11.26817
G1 X-5.464 Y-7.246 E11.29256
G1 X-5.926 Y-7.027 E11.31807
G1 X-6.34 Y-6.738 E11.34326
G1 X-6.693 Y-6.382 E11.36827
G1 X-6.981 Y-5.968 E11.39343
G1 X-7.198 Y-5.502 E11.41908
G1 X-7.322 Y-5.039 E11.44299
G1 X-7.368 Y-4.51 E11.46948
G1 X-7.368 Y4.494 E11.91869
G1 X-7.322 Y5.023 E11.94519
G1 X-7.194 Y5.497 E11.96968
G1 X-6.978 Y5.962 E11.99526
G1 X-6.687 Y6.376 E12.02051
G1 X-6.333 Y6.73 E12.04548
G1 X-5.919 Y7.018 E12.07064
G1 X-5.457 Y7.234 E12.09609
G1 X-4.992 Y7.358 E12.1201
G1 X-4.462 Y7.404 E12.14664
G1 X4.534 Y7.404 E12.59545
G0 F3600 X4.551 Y7.804
;TYPE:WALL-OUTER
G1 F1800 X5.145 Y7.754 E12.62519
G1 X5.686 Y7.607 E12.65316
G1 X6.211 Y7.362 E12.68206
G1 X6.682 Y7.03 E12.71081
G1 X7.086 Y6.627 E12.73928
G1 X7.417 Y6.152 E12.76817
G1 X7.659 Y5.627 E12.79701
G1 X7.802 Y5.093 E12.82459
G1 X7.852 Y4.511 E12.85373
G1 X7.852 Y-4.523 E13.30444
G1 X7.802 Y-5.109 E13.33378
G1 X7.655 Y-5.65 E13.36175
G1 X7.41 Y-6.175 E13.39065
G1 X7.078 Y-6.646 E13.4194
G1 X6.674 Y-7.05 E13.44791
G1 X6.204 Y-7.381 E13.47659
G1 X5.675 Y-7.623 E13.50561
G1 X5.145 Y-7.766 E13.533
G1 X4.563 Y-7.816 E13.56214
G1 X-4.467 Y-7.819 E14.01265
G1 X-5.061 Y-7.766 E14.0424
G1 X-5.602 Y-7.623 E14.07032
G1 X-6.127 Y-7.374 E14.09931
G1 X-6.598 Y-7.046 E14.12794
G1 X-7.001 Y-6.639 E14.15652
G1 X-7.329 Y-6.168 E14.18515
G1 X-7.575 Y-5.639 E14.21426
G1 X-7.718 Y-5.109 E14.24165
G1 X-7.768 Y-4.527 E14.27079
G1 X-7.768 Y4.511 E14.7217
G1 X-7.718 Y5.093 E14.75084
G1 X-7.571 Y5.635 E14.77886
G1 X-7.326 Y6.163 E14.8079
G1 X-6.994 Y6.634 E14.83665
G1 X-6.591 Y7.038 E14.86512
G1 X-6.119 Y7.366 E14.89379
G1 X-5.595 Y7.611 E14.92265
G1 X-5.061 Y7.754 E14.95023
G1 X-4.479 Y7.804 E14.97937
G1 X4.551 Y7.804 E15.42988
G0 F3600 X4.75 Y7.788
G0 X4.69 Y7.092
G0 X4.495 Y6.624
;TYPE:SKIN
G1 F1800 X-4.423 Y6.623 E15.8748
G1 X-4.861 Y6.586 E15.89673
G1 X-5.182 Y6.499 E15.91332
G1 X-5.523 Y6.338 E15.93214
G1 X-5.827 Y6.125 E15.95066
G1 X-6.086 Y5.87 E15.96879
G1 X-6.297 Y5.567 E15.98721
G1 X-6.459 Y5.218 E16.00641
G1 X-6.55 Y4.892 E16.02329
G1 X-6.588 Y4.463 E16.04478
G1 X-6.588 Y-4.471 E16.4905
G1 X-6.55 Y-4.908 E16.51238
G1 X-6.463 Y-5.226 E16.52883
G1 X-6.298 Y-5.575 E16.54809
G1 X-6.089 Y-5.879 E16.5665
G1 X-5.835 Y-6.134 E16.58445
G1 X-5.53 Y-6.346 E16.60298
G1 X-5.194 Y-6.507 E16.62157
G1 X-4.853 Y-6.598 E16.63918
G1 X-4.407 Y-6.636 E16.66151
G1 X4.507 Y-6.636 E17.10623
G1 X4.941 Y-6.598 E17.12797
G1 X5.263 Y-6.511 E17.14461
G1 X5.612 Y-6.349 E17.16381
G1 X5.911 Y-6.141 E17.18198
G1 X6.17 Y-5.883 E17.20022
G1 X6.382 Y-5.579 E17.21871
G1 X6.543 Y-5.234 E17.2377
G1 X6.634 Y-4.908 E17.25459
G1 X6.672 Y-4.475 E17.27627
G1 X6.672 Y4.455 E17.72179
G1 X6.634 Y4.893 E17.74372
G1 X6.547 Y5.215 E17.76037
G1 X6.386 Y5.559 E17.77931
G1 X6.173 Y5.863 E17.79783
G1 X5.918 Y6.122 E17.81597
G1 X5.615 Y6.334 E17.83442
G1 X5.27 Y6.495 E17.85341
G1 X4.944 Y6.586 E17.8703
G1 X4.495 Y6.624 E17.89278
G0 F3600 X-6.312 Y5.002
G1 F1800 X-4.962 Y6.351 E17.98799
G0 F3600 X-4.325 Y6.423
G1 F1800 X-6.388 Y4.36 E18.13355
G0 F3600 X-6.388 Y3.794
G1 F1800 X-3.759 Y6.423 E18.31904
G0 F3600 X-3.193 Y6.423
G1 F1800 X-6.388 Y3.229 E18.54443
G0 F3600 X-6.388 Y2.663
G1 F1800 X-2.628 Y6.423 E18.80971
G0 F3600 X-2.062 Y6.423
G1 F1800 X-6.388 Y2.097 E19.11494
G0 F3600 X-6.388 Y1.532
G1 F1800 X-1.496 Y6.423 E19.46006
G0 F3600 X-.931 Y6.423
G1 F1800 X-6.388 Y0.966 E19.84508
G0 F3600 X-6.388 Y0.4
G1 F1800 X-.365 Y6.423 E20.27004
G0 F3600 X0.201 Y6.423
G1 F1800 X-6.388 Y-.165 E20.73489
G0 F3600 X-6.388 Y-.731
G1 F1800 X0.767 Y6.423 E21.23968
G0 F3600 X1.332 Y6.423
G1 F1800 X-6.388 Y-1.297 E21.78437
G0 F3600 X-6.388 Y-1.863
G1 F1800 X1.898 Y6.423 E22.36899
G0 F3600 X2.464 Y6.423
G1 F1800 X-6.388 Y-2.428 E22.99351
G0 F3600 X-6.388 Y-2.994
G1 F1800 X3.029 Y6.423 E23.65793
G0 F3600 X3.595 Y6.423
G1 F1800 X-6.388 Y-3.56 E24.36228
G0 F3600 X-6.388 Y-4.125
G1 F1800 X4.161 Y6.423 E25.10654
G0 F3600 X4.708 Y6.405
G1 F1800 X-6.37 Y-4.673 E25.88815
G0 F3600 X-6.278 Y-5.146
G1 F1800 X5.181 Y6.312 E26.69661
G0 F3600 X5.561 Y6.126
G1 F1800 X-6.09 Y-5.525 E27.51865
G0 F3600 X-5.843 Y-5.843
G1 F1800 X5.878 Y5.878 E28.34563
G0 F3600 X6.136 Y5.57
G1 F1800 X-5.534 Y-6.1 E29.16901
G0 F3600 X-5.167 Y-6.298
G1 F1800 X6.333 Y5.201 E29.98036
G0 F3600 X6.446 Y4.749
G1 F1800 X-4.711 Y-6.409 E30.76759
G0 F3600 X-4.173 Y-6.436
G1 F1800 X6.472 Y4.209 E31.51865
G0 F3600 X6.472 Y3.644
G1 F1800 X-3.608 Y-6.436 E32.22985
G0 F3600 X-3.042 Y-6.436
G1 F1800 X6.472 Y3.078 E32.90111
G0 F3600 X6.472 Y2.512
G1 F1800 X-2.476 Y-6.436 E33.53244
G0 F3600 X-1.911 Y-6.436
G1 F1800 X6.472 Y1.947 E34.12391
G0 F3600 X6.472 Y1.381
G1 F1800 X-1.345 Y-6.436 E34.67544
G0 F3600 X-.779 Y-6.436
G1 F1800 X6.472 Y0.815 E35.18703
G0 F3600 X6.472 Y0.25
G1 F1800 X-.214 Y-6.436 E35.65877
G0 F3600 X0.352 Y-6.436
G1 F1800 X6.472 Y-.316 E36.09057
G0 F3600 X6.472 Y-.882
G1 F1800 X0.918 Y-6.436 E36.48243
G0 F3600 X1.484 Y-6.436
G1 F1800 X6.472 Y-1.447 E36.8344
G0 F3600 X6.472 Y-2.013
G1 F1800 X2.049 Y-6.436 E37.14646
G0 F3600 X2.615 Y-6.436
G1 F1800 X6.472 Y-2.579 E37.4186
G0 F3600 X6.472 Y-3.145
G1 F1800 X3.181 Y-6.436 E37.65079
G0 F3600 X3.746 Y-6.436
G1 F1800 X6.472 Y-3.71 E37.84313
G0 F3600 X6.472 Y-4.276
G1 F1800 X4.312 Y-6.436 E37.99553
G0 F3600 X4.917 Y-6.397
G1 F1800 X6.434 Y-4.88 E38.10256
G1 X6.504 Y-4.81
;MESH:NONMESH
G0 F600 X6.504 Y-4.81 Z0.5
G0 F3600 X4.534 Y7.024
;TIME_ELAPSED:29.757652
;LAYER:1
M106 S255
;TYPE:WALL-INNER
;MESH:Body1
G1 F2700 X5.027 Y6.979 E38.11903
G1 X5.437 Y6.871 E38.13313
G1 X5.835 Y6.684 E38.14775
G1 X6.191 Y6.433 E38.16224
G1 X6.496 Y6.126 E38.17663
G1 X6.734 Y5.783 E38.19052
G1 X6.921 Y5.382 E38.20524
G1 X7.03 Y4.977 E38.21919
G1 X7.072 Y4.501 E38.23508
G1 X7.072 Y-4.509 E38.53475
G1 X7.031 Y-4.993 E38.55091
G1 X6.922 Y-5.397 E38.56483
G1 X6.732 Y-5.799 E38.57961
G1 X6.481 Y-6.156 E38.59413
G1 X6.174 Y-6.459 E38.60848
G1 X5.834 Y-6.694 E38.62222
G1 X5.429 Y-6.885 E38.63712
G1 X5.025 Y-6.995 E38.65104
G1 X4.548 Y-7.036 E38.66697
G1 X-4.451 Y-7.039 E38.96627
G1 X-4.939 Y-6.995 E38.98257
G1 X-5.351 Y-6.885 E38.99675
G1 X-5.746 Y-6.7 E39.01126
G1 X-6.103 Y-6.445 E39.02585
G1 X-6.414 Y-6.135 E39.04046
G1 X-6.647 Y-5.801 E39.054
G1 X-6.837 Y-5.397 E39.06885
G1 X-6.947 Y-4.993 E39.08278
G1 X-6.988 Y-4.513 E39.0988
G1 X-6.988 Y4.497 E39.39848
G1 X-6.947 Y4.977 E39.4145
G1 X-6.837 Y5.381 E39.42842
G1 X-6.648 Y5.783 E39.4432
G1 X-6.397 Y6.139 E39.45769
G1 X-6.088 Y6.445 E39.47215
G1 X-5.749 Y6.682 E39.48591
G1 X-5.351 Y6.869 E39.50053
G1 X-4.938 Y6.98 E39.51476
G1 X-4.461 Y7.024 E39.53069
G1 X4.534 Y7.024 E39.82987
G0 F5400 X4.552 Y7.424
G1 F2700 X5.096 Y7.374 E39.84803
G1 X5.574 Y7.249 E39.86447
G1 X6.037 Y7.031 E39.88149
G1 X6.451 Y6.739 E39.89834
G1 X6.805 Y6.382 E39.91506
G1 X7.082 Y5.983 E39.93122
G1 X7.298 Y5.52 E39.94821
G1 X7.426 Y5.047 E39.96451
G1 X7.472 Y4.518 E39.98217
G1 X7.472 Y-4.526 E40.28297
G1 X7.426 Y-5.063 E40.3009
G1 X7.298 Y-5.536 E40.3172
G1 X7.079 Y-6.001 E40.33429
G1 X6.788 Y-6.415 E40.35112
G1 X6.431 Y-6.768 E40.36782
G1 X6.035 Y-7.042 E40.38384
G1 X5.568 Y-7.262 E40.40101
G1 X5.095 Y-7.39 E40.41731
G1 X4.566 Y-7.436 E40.43497
G1 X-4.469 Y-7.439 E40.73547
G1 X-5.01 Y-7.391 E40.75354
G1 X-5.489 Y-7.262 E40.77004
G1 X-5.948 Y-7.047 E40.78689
G1 X-6.363 Y-6.752 E40.80383
G1 X-6.722 Y-6.393 E40.82071
G1 X-6.994 Y-6.002 E40.83656
G1 X-7.214 Y-5.535 E40.85373
G1 X-7.342 Y-5.063 E40.86999
G1 X-7.388 Y-4.53 E40.88779
G1 X-7.388 Y4.514 E41.18859
G1 X-7.342 Y5.047 E41.20638
G1 X-7.214 Y5.519 E41.22265
G1 X-6.995 Y5.985 E41.23978
G1 X-6.703 Y6.399 E41.25663
G1 X-6.345 Y6.753 E41.27337
G1 X-5.95 Y7.03 E41.28942
G1 X-5.489 Y7.246 E41.30635
G1 X-5.009 Y7.375 E41.32288
G1 X-4.48 Y7.424 E41.34055
G1 X4.552 Y7.424 E41.64096
G0 F5400 X4.57 Y7.824
;TYPE:WALL-OUTER
G1 F1800 X5.165 Y7.77 E41.66083
G1 X5.711 Y7.627 E41.6796
G1 X6.239 Y7.378 E41.69902
G1 X6.71 Y7.046 E41.71818
G1 X7.113 Y6.639 E41.73723
G1 X7.43 Y6.183 E41.7557
G1 X7.675 Y5.658 E41.77497
G1 X7.822 Y5.117 E41.79362
G1 X7.872 Y4.535 E41.81305
G1 X7.872 Y-4.543 E42.11498
G1 X7.822 Y-5.133 E42.13468
G1 X7.675 Y-5.674 E42.15332
G1 X7.426 Y-6.203 E42.17277
G1 X7.094 Y-6.674 E42.19194
G1 X6.687 Y-7.077 E42.21099
G1 X6.235 Y-7.39 E42.22927
G1 X5.706 Y-7.639 E42.24872
G1 X5.165 Y-7.786 E42.26737
G1 X4.583 Y-7.836 E42.28679
G1 X-4.487 Y-7.839 E42.58846
G1 X-5.08 Y-7.786 E42.60827
G1 X-5.627 Y-7.639 E42.6271
G1 X-6.15 Y-7.394 E42.64631
G1 X-6.622 Y-7.058 E42.66558
G1 X-7.03 Y-6.651 E42.68475
G1 X-7.342 Y-6.203 E42.70291
G1 X-7.591 Y-5.674 E42.72235
G1 X-7.738 Y-5.133 E42.741
G1 X-7.788 Y-4.547 E42.76056
G1 X-7.788 Y4.531 E43.0625
G1 X-7.738 Y5.117 E43.08206
G1 X-7.591 Y5.658 E43.10071
G1 X-7.342 Y6.187 E43.12015
G1 X-7.01 Y6.658 E43.13932
G1 X-6.603 Y7.061 E43.15837
G1 X-6.151 Y7.378 E43.17673
G1 X-5.627 Y7.623 E43.19597
G1 X-5.08 Y7.77 E43.21481
G1 X-4.498 Y7.824 E43.23425
G1 X4.57 Y7.824 E43.53585
G0 F5400 X4.769 Y7.806
G0 X4.708 Y7.112
G0 X4.51 Y6.644
;TYPE:SKIN
G1 F1800 X-4.438 Y6.644 E43.83346
G1 X-4.876 Y6.602 E43.8481
G1 X-5.214 Y6.511 E43.85974
G1 X-5.555 Y6.35 E43.87228
G1 X-5.843 Y6.15 E43.88394
G1 X-6.102 Y5.89 E43.89615
G1 X-6.318 Y5.587 E43.90853
G1 X-6.479 Y5.238 E43.92131
G1 X-6.57 Y4.915 E43.93247
G1 X-6.608 Y4.483 E43.9469
G1 X-6.608 Y-4.491 E44.24537
G1 X-6.57 Y-4.932 E44.26009
G1 X-6.479 Y-5.254 E44.27122
G1 X-6.314 Y-5.607 E44.28418
G1 X-6.118 Y-5.886 E44.29552
G1 X-5.853 Y-6.151 E44.30799
G1 X-5.55 Y-6.37 E44.32042
G1 X-5.211 Y-6.527 E44.33285
G1 X-4.877 Y-6.618 E44.34436
G1 X-4.427 Y-6.656 E44.35938
G1 X4.527 Y-6.656 E44.65719
G1 X4.964 Y-6.618 E44.67178
G1 X5.289 Y-6.527 E44.68301
G1 X5.644 Y-6.358 E44.69609
G1 X5.927 Y-6.165 E44.70748
G1 X6.186 Y-5.906 E44.71966
G1 X6.398 Y-5.606 E44.73188
G1 X6.563 Y-5.257 E44.74472
G1 X6.654 Y-4.932 E44.75595
G1 X6.692 Y-4.495 E44.77053
G1 X6.692 Y4.479 E45.06901
G1 X6.654 Y4.916 E45.0836
G1 X6.563 Y5.242 E45.09486
G1 X6.401 Y5.592 E45.10769
G1 X6.201 Y5.879 E45.11932
G1 X5.942 Y6.138 E45.1315
G1 X5.642 Y6.35 E45.14372
G1 X5.307 Y6.511 E45.15608
G1 X4.957 Y6.602 E45.16811
G1 X4.51 Y6.644 E45.18304
G0 F5400 X4.908 Y6.406
G1 F1800 X6.458 Y4.856 E45.25595
G0 F5400 X6.492 Y4.256
G1 F1800 X4.304 Y6.444 E45.35887
G0 F5400 X3.738 Y6.444
G1 F1800 X6.492 Y3.69 E45.48841
G0 F5400 X6.492 Y3.125
G1 F1800 X3.173 Y6.444 E45.64452
G0 F5400 X2.607 Y6.444
G1 F1800 X6.492 Y2.559 E45.82726
G0 F5400 X6.492 Y1.993
G1 F1800 X2.041 Y6.444 E46.03662
G0 F5400 X1.476 Y6.444
G1 F1800 X6.492 Y1.428 E46.27256
G0 F5400 X6.492 Y0.862
G1 F1800 X0.91 Y6.444 E46.53512
G0 F5400 X0.344 Y6.444
G1 F1800 X6.492 Y0.296 E46.8243
G0 F5400 X6.492 Y-.269
G1 F1800 X-.221 Y6.444 E47.14006
G0 F5400 X-.787 Y6.444
G1 F1800 X6.492 Y-.835 E47.48244
G0 F5400 X6.492 Y-1.401
G1 F1800 X-1.353 Y6.444 E47.85145
G0 F5400 X-1.918 Y6.444
G1 F1800 X6.492 Y-1.966 E48.24703
G0 F5400 X6.492 Y-2.532
G1 F1800 X-2.484 Y6.444 E48.66923
G0 F5400 X-3.05 Y6.444
G1 F1800 X6.492 Y-3.098 E49.11806
G0 F5400 X6.492 Y-3.664
G1 F1800 X-3.615 Y6.444 E49.59349
G0 F5400 X-4.181 Y6.444
G1 F1800 X6.492 Y-4.229 E50.09551
G0 F5400 X6.466 Y-4.769
G1 F1800 X-4.719 Y6.416 E50.62162
G0 F5400 X-5.175 Y6.307
G1 F1800 X6.356 Y-5.225 E51.16403
G0 F5400 X6.16 Y-5.595
G1 F1800 X-5.547 Y6.112 E51.71469
G0 F5400 X-5.855 Y5.855
G1 F1800 X5.905 Y-5.905 E52.26784
G0 F5400 X5.572 Y-6.138
G1 F1800 X-6.105 Y5.539 E52.81709
G0 F5400 X-6.293 Y5.161
G1 F1800 X5.209 Y-6.341 E53.35811
G0 F5400 X4.739 Y-6.436
G1 F1800 X-6.388 Y4.691 E53.88149
G0 F5400 X-6.408 Y4.145
G1 F1800 X4.193 Y-6.456 E54.38013
G0 F5400 X3.627 Y-6.456
G1 F1800 X-6.408 Y3.579 E54.85214
G0 F5400 X-6.408 Y3.014
